rospo-newyear-light/symbolic/apps/preferences-desktop-remote-desktop-symbolic.svg

<svg height="16" width="16" xmlns="http://www.w3.org/2000/svg"><g fill="#5c616c"><path d="m3.5 5s-.5 0-.5.5v4c0 .5.5.5.5.5h4c .5 0 .5-.5.5-.5v-4c0-.5-.44-.5-.5-.5zm.5 2h3v2h-3z"/><path d="m2 0c-2 0-2 2-2 2v9s0 2 2 2h12s2 0 2-2v-9s0-2-2-2zm0 2h12v9h-12zm1 13v1h10v-1c0-1-1-1-1-1h-8s-1 0-1 1z"/><path d="m9.5 3h2c .277 0 .5.223.5.5v2c0 .277-.223.5-.5.5h-2c-.277 0-.5-.223-.5-.5v-2c0-.277.223-.5.5-.5z"/></g></svg>

<svg xmlns="http://www.w3.org/2000/svg" width="16" height="16" version="1.1">
 <path style="fill:#5c616c" d="M 3.5,5 C 3.5,5 3,5 3,5.5 V 9.5 C 3,10 3.5,10 3.5,10 H 7.5 C 8,10 8,9.5 8,9.5 V 5.5 C 8,5 7.56,5 7.5,5 Z M 4,7 H 7 V 9 H 4 Z"/>
 <path style="fill:#5c616c" d="M 2,0 C 0,0 0,2 0,2 V 11 C 0,11 0,13 2,13 H 14 C 14,13 16,13 16,11 V 2 C 16,2 16,0 14,0 Z M 2,2 H 14 V 11 H 2 Z M 3,15 V 16 H 13 V 15 C 13,14 12,14 12,14 H 4 C 4,14 3,14 3,15 Z"/>
 <path style="fill:#5c616c" d="M 9.5,3 H 11.5 C 11.777,3 12,3.223 12,3.5 V 5.5 C 12,5.777 11.777,6 11.5,6 H 9.5 C 9.223,6 9,5.777 9,5.5 V 3.5 C 9,3.223 9.223,3 9.5,3 Z"/>
</svg>
